img/benefit2-icons/img4.svg

<svg width="40" height="40" viewBox="0 0 40 40" fill="none" xmlns="http://www.w3.org/2000/svg">
<g clip-path="url(#clip0_257_14829)">
<path d="M35.001 7.26562C35.4325 7.26562 35.7822 6.91586 35.7822 6.48438V2.34375C35.7822 1.05141 34.7308 0 33.4385 0H2.34473C1.05238 0 0.000976562 1.05141 0.000976562 2.34375V37.6562C0.000976562 38.9486 1.05238 40 2.34473 40H33.4385C34.7308 40 35.7822 38.9486 35.7822 37.6562V35.4688C35.7822 35.0373 35.4325 34.6875 35.001 34.6875C34.5695 34.6875 34.2197 35.0373 34.2197 35.4688V37.6562C34.2197 38.087 33.8693 38.4375 33.4385 38.4375H2.34473C1.91395 38.4375 1.56348 38.087 1.56348 37.6562V2.34375C1.56348 1.91297 1.91395 1.5625 2.34473 1.5625H33.4385C33.8693 1.5625 34.2197 1.91297 34.2197 2.34375V6.48438C34.2197 6.91586 34.5695 7.26562 35.001 7.26562Z" fill="#0383FD"/>
<path d="M31.2509 3.75H4.53125C4.09977 3.75 3.75 4.09977 3.75 4.53125V20.8594C3.75 21.2909 4.09977 21.6406 4.53125 21.6406C4.96273 21.6406 5.3125 21.2909 5.3125 20.8594V5.3125H30.4697V6.5625C30.4697 6.99398 30.8195 7.34375 31.2509 7.34375C31.6824 7.34375 32.0322 6.99398 32.0322 6.5625V4.53125C32.0322 4.09977 31.6824 3.75 31.2509 3.75Z" fill="#0383FD"/>
<path d="M5.08359 23.1977C4.93828 23.0523 4.7375 22.9688 4.53125 22.9688C4.32578 22.9688 4.12422 23.0523 3.97891 23.1977C3.83359 23.343 3.75 23.5445 3.75 23.75C3.75 23.9555 3.83359 24.157 3.97891 24.3023C4.12422 24.4477 4.32578 24.5312 4.53125 24.5312C4.7375 24.5312 4.93828 24.4477 5.08359 24.3023C5.22969 24.157 5.3125 23.9555 5.3125 23.75C5.3125 23.5445 5.22969 23.343 5.08359 23.1977Z" fill="#0383FD"/>
<path d="M31.2509 32.9688C30.8195 32.9688 30.4697 33.3185 30.4697 33.75V34.6875H5.3125V26.7578C5.3125 26.3263 4.96273 25.9766 4.53125 25.9766C4.09977 25.9766 3.75 26.3263 3.75 26.7578V35.4688C3.75 35.9002 4.09977 36.25 4.53125 36.25H31.2509C31.6824 36.25 32.0322 35.9002 32.0322 35.4688V33.75C32.0322 33.3185 31.6824 32.9688 31.2509 32.9688Z" fill="#0383FD"/>
<path d="M24.2117 27.6044C23.9066 27.2992 23.412 27.2992 23.1068 27.6043L21.5628 29.1484L20.603 28.1886C19.997 27.5827 19.0111 27.5827 18.4051 28.1886L17.7806 28.8131C17.4755 29.1182 17.4755 29.6129 17.7806 29.9181C18.0856 30.2231 18.5803 30.2231 18.8855 29.9181L19.5041 29.2995L20.4638 30.2593C20.7668 30.5623 21.1648 30.7138 21.5628 30.7138C21.9607 30.7138 22.3587 30.5623 22.6617 30.2593L24.2117 28.7093C24.5167 28.4042 24.5167 27.9095 24.2117 27.6044Z" fill="#0383FD"/>
<path d="M39.6404 16.3892C39.9847 15.8521 40.0875 15.1905 39.9223 14.5743C39.7572 13.958 39.3375 13.4366 38.7707 13.1436C38.5249 13.0166 38.3745 12.7559 38.3873 12.4796C38.417 11.8423 38.1752 11.218 37.7241 10.7669C37.273 10.3158 36.649 10.0737 36.0114 10.1037C35.7338 10.1171 35.4745 9.96602 35.3474 9.72031C35.0545 9.15359 34.533 8.73383 33.9167 8.56867C33.3002 8.40344 32.6389 8.50633 32.1019 8.85062C31.869 9 31.568 8.99992 31.3352 8.85062C30.7981 8.50625 30.1367 8.40352 29.5204 8.56867C28.9041 8.73383 28.3827 9.15359 28.0897 9.72031C27.9627 9.96609 27.7013 10.1162 27.4257 10.1037C26.7881 10.0739 26.1641 10.3158 25.713 10.7669C25.2619 11.218 25.0202 11.8423 25.0498 12.4795C25.0627 12.7559 24.9121 13.0166 24.6664 13.1436C24.0997 13.4366 23.6799 13.958 23.5148 14.5743C23.4359 14.8683 23.4188 15.1726 23.4592 15.4688H9.82641C9.39492 15.4688 9.04516 15.8185 9.04516 16.25C9.04516 16.6815 9.39492 17.0313 9.82641 17.0313H23.8584C23.8416 17.0741 23.8221 17.1163 23.7966 17.1559C23.4523 17.693 23.3495 18.3546 23.5147 18.9709C23.5373 19.0555 23.5652 19.1381 23.5973 19.2188H9.82617C9.39469 19.2188 9.04492 19.5685 9.04492 20C9.04492 20.4315 9.39469 20.7813 9.82617 20.7813H25.0031C25.0371 20.8705 25.0541 20.9669 25.0495 21.0655C25.0199 21.7029 25.2616 22.3271 25.7128 22.7783C26.1639 23.2294 26.7879 23.4716 27.4255 23.4415C27.7015 23.428 27.9624 23.5791 28.0895 23.8248C28.1833 24.0064 28.3009 24.1726 28.4372 24.3205V31.6168C28.4372 31.9324 28.6271 32.217 28.9185 32.3382C29.2098 32.4594 29.5456 32.3933 29.7695 32.1706L31.7184 30.2318L33.6674 32.1706C33.8168 32.3192 34.0159 32.398 34.2186 32.398C34.3195 32.398 34.4214 32.3784 34.5184 32.3381C34.8098 32.217 34.9997 31.9323 34.9997 31.6167V24.3204C35.136 24.1726 35.2536 24.0063 35.3474 23.8248C35.4745 23.579 35.7354 23.4288 36.0114 23.4414C36.6494 23.4716 37.273 23.2294 37.7241 22.7782C38.1752 22.327 38.417 21.7028 38.3873 21.0655C38.3745 20.7891 38.525 20.5285 38.7707 20.4015C39.3374 20.1085 39.7572 19.5871 39.9223 18.9708C40.0875 18.3545 39.9847 17.693 39.6404 17.1558C39.491 16.923 39.491 16.6221 39.6404 16.3892ZM33.4372 29.7377L32.2694 28.5759C31.9646 28.2727 31.4722 28.2727 31.1674 28.5759L29.9997 29.7377V25.0508C30.4671 25.0728 30.9355 24.9506 31.3352 24.6945C31.568 24.5452 31.869 24.5452 32.1018 24.6945C32.4708 24.9311 32.8984 25.0537 33.3299 25.0537C33.3657 25.0537 33.4014 25.0519 33.4372 25.0502V29.7377ZM38.413 18.5665C38.3607 18.7619 38.2328 18.9207 38.0531 19.0136C37.2669 19.4201 36.7853 20.254 36.8265 21.1382C36.8359 21.3403 36.7623 21.5304 36.6192 21.6735C36.4762 21.8166 36.2861 21.89 36.084 21.8808C35.1993 21.8398 34.3659 22.3211 33.9594 23.1074C33.8665 23.2872 33.7077 23.415 33.5122 23.4673C33.3169 23.5196 33.1153 23.4884 32.9451 23.3792C32.5724 23.1403 32.1455 23.0209 31.7184 23.0209C31.2914 23.0209 30.8643 23.1404 30.4917 23.3792C30.3214 23.4884 30.1199 23.5196 29.9245 23.4673C29.7291 23.415 29.5703 23.2871 29.4773 23.1074C29.0709 22.3212 28.2376 21.8395 27.3527 21.8808C27.1511 21.8901 26.9605 21.8166 26.8175 21.6735C26.6744 21.5304 26.6008 21.3403 26.6102 21.1381C26.6392 20.5141 26.407 19.9158 25.9919 19.4745C25.9797 19.4611 25.9673 19.448 25.9541 19.4355C25.7893 19.2684 25.5983 19.1246 25.3836 19.0136C25.2039 18.9207 25.0761 18.762 25.0238 18.5665C24.9714 18.371 25.0027 18.1695 25.1119 17.9993C25.5896 17.2541 25.5896 16.2912 25.1119 15.546C25.0027 15.3757 24.9714 15.1742 25.0238 14.9788C25.0761 14.7834 25.204 14.6245 25.3837 14.5316C26.1699 14.1252 26.6514 13.2912 26.6103 12.407C26.6009 12.2049 26.6745 12.0148 26.8176 11.8717C26.9606 11.7286 27.1511 11.6552 27.3528 11.6645C28.2376 11.7055 29.071 11.2241 29.4774 10.4378C29.5703 10.258 29.7291 10.1302 29.9246 10.0779C30.12 10.0256 30.3215 10.0568 30.4917 10.166C31.237 10.6438 32.2 10.6438 32.945 10.166C33.1153 10.0569 33.3167 10.0255 33.5122 10.0779C33.7077 10.1302 33.8664 10.2581 33.9594 10.4378C34.3659 11.2241 35.1997 11.7057 36.084 11.6645C36.2862 11.6552 36.4762 11.7286 36.6192 11.8717C36.7623 12.0148 36.8359 12.2049 36.8265 12.407C36.7854 13.2912 37.2668 14.1252 38.0532 14.5316C38.2329 14.6245 38.3607 14.7833 38.413 14.9788C38.4654 15.1742 38.4341 15.3757 38.3249 15.5459C37.8472 16.2911 37.8472 17.2541 38.3249 17.9992C38.4341 18.1695 38.4655 18.371 38.413 18.5665Z" fill="#0383FD"/>
<path d="M35.434 14.6473C35.1289 14.3423 34.6342 14.3423 34.3292 14.6473L31.7361 17.2405L30.7038 16.2082C30.3988 15.9031 29.9041 15.9031 29.5989 16.2082C29.2938 16.5133 29.2938 17.008 29.5989 17.3131L31.1836 18.8978C31.3362 19.0504 31.5361 19.1266 31.736 19.1266C31.936 19.1266 32.136 19.0504 32.2885 18.8978L35.434 15.7523C35.7391 15.4472 35.7391 14.9525 35.434 14.6473Z" fill="#0383FD"/>
<path d="M9.53672 9.44766C9.39141 9.30234 9.18984 9.21875 8.98438 9.21875C8.77891 9.21875 8.57734 9.30234 8.43203 9.44766C8.28672 9.59297 8.20312 9.79453 8.20312 10C8.20312 10.2055 8.28672 10.407 8.43203 10.5523C8.57734 10.6977 8.77891 10.7812 8.98438 10.7812C9.18984 10.7812 9.39141 10.6977 9.53672 10.5523C9.68203 10.407 9.76562 10.2055 9.76562 10C9.76562 9.79453 9.68203 9.59297 9.53672 9.44766Z" fill="#0383FD"/>
<path d="M15.7025 9.21875H11.9004C11.4689 9.21875 11.1191 9.56852 11.1191 10C11.1191 10.4315 11.4689 10.7812 11.9004 10.7812H15.7025C16.134 10.7812 16.4837 10.4315 16.4837 10C16.4837 9.56852 16.134 9.21875 15.7025 9.21875Z" fill="#0383FD"/>
<path d="M23.6589 22.9688H14.7275C14.2961 22.9688 13.9463 23.3185 13.9463 23.75C13.9463 24.1815 14.2961 24.5312 14.7275 24.5312H23.6589C24.0904 24.5312 24.4401 24.1815 24.4401 23.75C24.4401 23.3185 24.0904 22.9688 23.6589 22.9688Z" fill="#0383FD"/>
</g>
<defs>
<clipPath id="clip0_257_14829">
<rect width="40" height="40" fill="white"/>
</clipPath>
</defs>
</svg>

<svg width="40" height="40" fill="none" xmlns="http://www.w3.org/2000/svg"><g clip-path="url(#clip0_257_14829)" fill="#0383FD"><path d="M35.001 7.266c.431 0 .781-.35.781-.782v-4.14A2.346 2.346 0 0033.44 0H2.344A2.346 2.346 0 000 2.344v35.312A2.346 2.346 0 002.345 40h31.093a2.346 2.346 0 002.344-2.344V35.47a.781.781 0 10-1.562 0v2.187c0 .431-.35.782-.782.782H2.345a.782.782 0 01-.782-.782V2.344c0-.431.351-.781.782-.781h31.093c.431 0 .782.35.782.78v4.141c0 .432.35.782.781.782z"/><path d="M31.25 3.75H4.532a.781.781 0 00-.781.781V20.86a.781.781 0 101.563 0V5.312H30.47v1.25a.781.781 0 101.562 0v-2.03a.781.781 0 00-.781-.782zM5.084 23.198a.785.785 0 00-.553-.23.787.787 0 00-.552.23.787.787 0 00-.229.552c0 .206.084.407.229.552a.787.787 0 00.552.23.785.785 0 00.782-.782.784.784 0 00-.23-.552zm26.166 9.771a.781.781 0 00-.78.781v.938H5.313v-7.93a.781.781 0 10-1.563 0v8.71c0 .432.35.782.781.782h26.72c.431 0 .781-.35.781-.781V33.75a.781.781 0 00-.781-.781z"/><path d="M24.212 27.604a.781.781 0 00-1.105 0l-1.544 1.544-.96-.96a1.556 1.556 0 00-2.198 0l-.624.625a.781.781 0 001.105 1.105l.618-.619.96.96a1.55 1.55 0 001.099.455 1.55 1.55 0 001.099-.455l1.55-1.55a.781.781 0 000-1.105z"/><path d="M39.64 16.39a2.278 2.278 0 00.282-1.816 2.277 2.277 0 00-1.151-1.43.712.712 0 01-.384-.664 2.276 2.276 0 00-2.376-2.376.71.71 0 01-.664-.384 2.277 2.277 0 00-1.43-1.151 2.277 2.277 0 00-1.815.282.712.712 0 01-.767 0 2.277 2.277 0 00-1.815-.282 2.278 2.278 0 00-1.43 1.151.714.714 0 01-.664.384 2.277 2.277 0 00-1.713.663 2.278 2.278 0 00-.663 1.713.712.712 0 01-.384.664 2.278 2.278 0 00-1.207 2.325H9.826a.781.781 0 100 1.562h14.032a.701.701 0 01-.061.125 2.278 2.278 0 00-.2 2.063H9.827a.781.781 0 100 1.562h15.176c.034.09.051.186.046.285a2.275 2.275 0 002.376 2.376.712.712 0 01.665.383c.093.181.21.348.347.495v7.297a.781.781 0 001.332.554l1.95-1.94 1.948 1.94A.781.781 0 0035 31.617V24.32c.136-.147.254-.314.347-.495a.713.713 0 01.664-.384 2.274 2.274 0 002.376-2.375.712.712 0 01.384-.665 2.278 2.278 0 001.151-1.43 2.278 2.278 0 00-.282-1.815.712.712 0 010-.767zm-6.203 13.348l-1.168-1.162a.781.781 0 00-1.102 0L30 29.738V25.05c.467.022.936-.1 1.335-.356a.712.712 0 01.767 0 2.28 2.28 0 001.228.359c.036 0 .071-.002.107-.004v4.688zm4.976-11.171a.702.702 0 01-.36.447 2.279 2.279 0 00-1.226 2.124.702.702 0 01-.208.535.703.703 0 01-.535.208 2.279 2.279 0 00-2.125 1.226.702.702 0 01-.447.36.702.702 0 01-.567-.088 2.272 2.272 0 00-2.453 0 .703.703 0 01-.568.088.703.703 0 01-.447-.36 2.278 2.278 0 00-2.124-1.226.703.703 0 01-.536-.207.702.702 0 01-.207-.536 2.278 2.278 0 00-1.226-2.124.702.702 0 01-.36-.447.702.702 0 01.088-.568 2.279 2.279 0 000-2.453.702.702 0 01-.088-.567.702.702 0 01.36-.447 2.279 2.279 0 001.226-2.125.702.702 0 01.208-.535.703.703 0 01.535-.207 2.279 2.279 0 002.124-1.227.702.702 0 01.448-.36.702.702 0 01.567.088 2.279 2.279 0 002.453 0 .7.7 0 01.567-.088.7.7 0 01.447.36 2.279 2.279 0 002.125 1.226.702.702 0 01.535.208.702.702 0 01.208.535 2.279 2.279 0 001.226 2.125c.18.092.308.251.36.447a.702.702 0 01-.088.567 2.279 2.279 0 000 2.453c.11.17.14.372.088.568z"/><path d="M35.434 14.647a.781.781 0 00-1.105 0l-2.593 2.594-1.032-1.033a.781.781 0 00-1.105 1.105l1.585 1.585a.779.779 0 001.104 0l3.146-3.146a.781.781 0 000-1.105zM9.537 9.448a.787.787 0 00-.553-.23.787.787 0 00-.552.23.787.787 0 00-.229.552c0 .206.084.407.229.552a.787.787 0 00.552.23.787.787 0 00.553-.23.787.787 0 00.229-.552.787.787 0 00-.23-.552zm6.166-.229H11.9a.781.781 0 100 1.562h3.803a.781.781 0 100-1.562zm7.956 13.75h-8.931a.781.781 0 100 1.562h8.93a.781.781 0 100-1.562z"/></g><defs><clipPath id="clip0_257_14829"><path fill="#fff" d="M0 0h40v40H0z"/></clipPath></defs></svg>
